X:1
T:There’s Only One Way
T:Lelia Naylor Morris, 1915
T:There’s Only One Way
T:Public Domain
T:Public Domain
C:Lelia Naylor Morris, 1915
Z:Public Domain
%%score ( 1 2 ) ( 3 4 )
L:1/8
M:6/4
K:C
V:1 treble 
V:2 treble 
V:3 bass 
V:4 bass 
V:1
 [EG]2 | [EG]3 [FA] [EB]2 [Ec]2 [Ed]2 [Ec]2 | [Fc]2 [FB]2 [FA]2 [FB]4 [FG]2 | %3
w: 1.~There’s|on- ly one way that this|lost world may know That|
w: 2.~If|Christ’s first dis- ci- ples had|si- lent- ly gone, And|
w: 3.~Tell|o- thers what Je- sus hath|done for your soul, Of|
w: 4.~Dear|Mas- ter, we hast- en the|sto- ry to tell, And|
 [Fd]3 [Fc] [FB]2 [FA]2 [FB]2 [FA]2 | [EG]6- [EG]4 [FA]2 | [EG]3 [^D^F] [EG]2 [=FA]2 [Fc]2 [FA]2 | %6
w: Je- sus for sin- ners hath|died; * To|spread the glad tid- ings He’s|
w: been to their great trust un-|true, * God’s|plan of sal- va- tion we|
w: sins through His blood washed a-|way; * And|bid them on Him ev- ery|
w: pass on the life giv- ing|Word; * And|they must tell o- thers, and|
 [EG]2 [Gc]2 [Gd]2 [Ge]4 [Gc]2 | [GB]3 [Gc] [GB]2 [DA]2 [DE]2 [D^F]2 | [DG]6- [DG]4 || %9
w: bid- den us go, And|no o- ther way doth pro-|vide. *|
w: could not have known, His|mer- cy for me and for|you. *|
w: bur- den to roll, And|taste His sal- va- tion to-|day. *|
w: they, o- thers still, Till|all the glad mes- sage have|heard. *|
"^Refrain" [B,G]2 | [B,G]3 [B,A] [B,G]2 ([B,D]2 [^A,^C]2) [B,D]2 | [CG]3 [CA] [CG]2 [CE]4 [CE]2 | %12
w: |||
w: He’s|count- ing on us, * the|sto- ry to tell His|
w: |||
w: |||
 [Ec]3 [Ec] [Ec]2 [^Fc]2 [FB]2 [FA]2 | (G4 F2 [FG]4) [FG]2 | (E2 G)[^F^d] [Ge]2 [Ec]4 [EG]2 | %15
w: |||
w: scheme of re- demp- tion for|man; * * He’s|ing * on you, He’s count-|
w: |||
w: |||
 [FA]3 [FB] [Fc]2 [EG]4 [EG]2 | [FA]3 [GB] [Ac]2 [^Fd]2 [FA]2 [=FB]2 | [Ec]6- [Ec]4 |] %18
w: |||
w: on me, The Mas- ter|hath no o- ther plan. *||
w: |||
w: |||
V:2
 x2 | x12 | x12 | x12 | x12 | x12 | x12 | x12 | x10 || x2 | x12 | x12 | x12 | d6 x6 | e3 x9 | x12 | %16
w: ||||||||||||||||
w: |||||||||||||count-|ing||
 x12 | x10 |] %18
w: ||
w: ||
V:3
 [C,C]2 | [C,C]3 [C,C] [C,C]2 [C,G,]2 [C,G,]2 [C,G,]2 | [D,G,]2 [G,D]2 [G,C]2 [G,D]4 [G,B,]2 | %3
 [G,B,]3 [G,C] [G,D]2 [G,,G,]2 [G,,G,]2 [B,,G,]2 | [C,C]6- [C,C]4 [F,C]2 | %5
 [C,C]3 [C,C] [C,C]2 [F,C]2 [F,A,]2 [F,C]2 | [G,C]2 [E,C]2 [D,B,]2 [C,C]4 [E,C]2 | %7
 [D,D]3 [D,E] [D,D]2 [D,C]2 [D,C]2 [D,C]2 | [G,B,]6- [G,B,]4 || [F,G,]2 | %10
 [D,G,]3 [D,G,] [D,G,]2 G,4 [G,,F,]2 | [C,E,]3 [C,F,] [C,E,]2 [C,G,]4 [C,G,]2 | %12
 [A,,G,]3 [A,,A,] [E,A,]2 [D,A,]2 [D,D]2 [D,C]2 | ([G,B,]4 [G,B,]2 [G,B,]4) [G,B,]2 | %14
 [C,C]3 [C,C] [C,C]2 [C,G,]4 [C,C]2 | [F,C]3 [F,G,] [F,A,]2 C4 C2 | %16
 [F,C]3 [F,C] [F,C]2 [D,C]2 [D,C]2 G,2 | [C,G,]6- [C,G,]4 |] %18
V:4
 x2 | x12 | x12 | x12 | x12 | x12 | x12 | x12 | x10 || x2 | x6 G,4 x2 | x12 | x12 | x12 | x12 | %15
 x12 | x10 G,2 | x10 |] %18

